www/assets/icons/battery_2_bar.svg

<svg xmlns="http://www.w3.org/2000/svg" width="24" height="24" viewBox="0 0 24 24" fill='currentColor'><path d="M17 5v16c0 .55-.45 1-1 1H8c-.55 0-1-.45-1-1V5c0-.55.45-1 1-1h2V2h4v2h2c.55 0 1 .45 1 1m-2 1H9v10h6z"/></svg>

<svg width="24" height="24" viewBox="0 0 24 24" xmlns="http://www.w3.org/2000/svg" fill='currentColor'><path d="M17 5V21C17 21.55 16.55 22 16 22H8C7.45 22 7 21.55 7 21V5C7 4.45 7.45 4 8 4H10V2H14V4H16C16.55 4 17 4.45 17 5ZM15 6H9V16H15V6Z"/></svg>
